images/50867370.svg

<?xml version="1.0" encoding="UTF-8"?>
<svg xmlns="http://www.w3.org/2000/svg" xmlns:xlink="http://www.w3.org/1999/xlink" width="300pt" height="300pt" viewBox="0 0 300 300" version="1.1">
<defs>
<g>
<symbol overflow="visible" id="glyph0-0">
<path style="stroke:none;" d="M 0.546875 1.9375 L 0.546875 -7.75 L 6.046875 -7.75 L 6.046875 1.9375 Z M 1.171875 1.328125 L 5.4375 1.328125 L 5.4375 -7.140625 L 1.171875 -7.140625 Z M 1.171875 1.328125 "/>
</symbol>
<symbol overflow="visible" id="glyph0-1">
<path style="stroke:none;" d="M 1.078125 -8.015625 L 5.6875 -8.015625 L 5.6875 -7.109375 L 2.171875 -7.109375 L 2.171875 -4.75 L 5.34375 -4.75 L 5.34375 -3.828125 L 2.171875 -3.828125 L 2.171875 0 L 1.078125 0 Z M 1.078125 -8.015625 "/>
</symbol>
<symbol overflow="visible" id="glyph0-2">
<path style="stroke:none;" d="M 1.078125 -8.015625 L 2.546875 -8.015625 L 6.09375 -1.3125 L 6.09375 -8.015625 L 7.15625 -8.015625 L 7.15625 0 L 5.6875 0 L 2.125 -6.703125 L 2.125 0 L 1.078125 0 Z M 1.078125 -8.015625 "/>
</symbol>
<symbol overflow="visible" id="glyph0-3">
<path style="stroke:none;" d="M 4.328125 -7.28125 C 3.546875 -7.28125 2.921875 -6.984375 2.453125 -6.390625 C 1.992188 -5.804688 1.765625 -5.007812 1.765625 -4 C 1.765625 -2.988281 1.992188 -2.1875 2.453125 -1.59375 C 2.921875 -1.007812 3.546875 -0.71875 4.328125 -0.71875 C 5.117188 -0.71875 5.742188 -1.007812 6.203125 -1.59375 C 6.660156 -2.1875 6.890625 -2.988281 6.890625 -4 C 6.890625 -5.007812 6.660156 -5.804688 6.203125 -6.390625 C 5.742188 -6.984375 5.117188 -7.28125 4.328125 -7.28125 Z M 4.328125 -8.171875 C 5.453125 -8.171875 6.351562 -7.789062 7.03125 -7.03125 C 7.707031 -6.28125 8.046875 -5.269531 8.046875 -4 C 8.046875 -2.738281 7.707031 -1.726562 7.03125 -0.96875 C 6.351562 -0.21875 5.453125 0.15625 4.328125 0.15625 C 3.203125 0.15625 2.300781 -0.21875 1.625 -0.96875 C 0.957031 -1.71875 0.625 -2.726562 0.625 -4 C 0.625 -5.269531 0.957031 -6.28125 1.625 -7.03125 C 2.300781 -7.789062 3.203125 -8.171875 4.328125 -8.171875 Z M 4.328125 -8.171875 "/>
</symbol>
</g>
</defs>
<g id="surface13933">
<rect x="0" y="0" width="300" height="300" style="fill:rgb(100%,100%,100%);fill-opacity:1;stroke:none;"/>
<path style="fill:none;stroke-width:1.2;stroke-linecap:butt;stroke-linejoin:miter;stroke:rgb(20%,80%,80%);stroke-opacity:1;stroke-miterlimit:10;" d="M 264.75 133.789062 L 250.972656 132.53125 "/>
<path style="fill:none;stroke-width:1.2;stroke-linecap:butt;stroke-linejoin:miter;stroke:rgb(0%,0%,0%);stroke-opacity:1;stroke-miterlimit:10;" d="M 250.972656 132.53125 L 237.191406 131.269531 "/>
<path style=" stroke:none;fill-rule:nonzero;fill:rgb(100%,100%,100%);fill-opacity:1;" d="M 261.75 127.289062 L 268.75 127.289062 L 268.75 140.289062 L 261.75 140.289062 Z M 261.75 127.289062 "/>
<g style="fill:rgb(20%,80%,80%);fill-opacity:1;">
  <use xlink:href="#glyph0-1" x="261.75" y="137.19043"/>
</g>
<path style="fill:none;stroke-width:1.2;stroke-linecap:butt;stroke-linejoin:miter;stroke:rgb(0%,0%,0%);stroke-opacity:1;stroke-miterlimit:10;" d="M 237.191406 131.269531 L 221.230469 153.878906 "/>
<path style="fill:none;stroke-width:1.2;stroke-linecap:butt;stroke-linejoin:miter;stroke:rgb(0%,0%,0%);stroke-opacity:1;stroke-miterlimit:10;" d="M 230.277344 129.777344 L 217.507812 147.863281 "/>
<path style="fill:none;stroke-width:1.2;stroke-linecap:butt;stroke-linejoin:miter;stroke:rgb(0%,0%,0%);stroke-opacity:1;stroke-miterlimit:10;" d="M 225.59375 106.144531 L 237.191406 131.269531 "/>
<path style="fill:none;stroke-width:1.2;stroke-linecap:butt;stroke-linejoin:miter;stroke:rgb(0%,0%,0%);stroke-opacity:1;stroke-miterlimit:10;" d="M 221.230469 153.878906 L 193.671875 151.359375 "/>
<path style="fill:none;stroke-width:1.2;stroke-linecap:butt;stroke-linejoin:miter;stroke:rgb(0%,0%,0%);stroke-opacity:1;stroke-miterlimit:10;" d="M 193.671875 151.359375 L 182.074219 126.234375 "/>
<path style="fill:none;stroke-width:1.2;stroke-linecap:butt;stroke-linejoin:miter;stroke:rgb(0%,0%,0%);stroke-opacity:1;stroke-miterlimit:10;" d="M 198.425781 146.117188 L 189.144531 126.015625 "/>
<path style="fill:none;stroke-width:1.2;stroke-linecap:butt;stroke-linejoin:miter;stroke:rgb(0%,0%,0%);stroke-opacity:1;stroke-miterlimit:10;" d="M 182.074219 126.234375 L 198.035156 103.625 "/>
<path style="fill:none;stroke-width:1.2;stroke-linecap:butt;stroke-linejoin:miter;stroke:rgb(0%,0%,0%);stroke-opacity:1;stroke-miterlimit:10;" d="M 182.074219 126.234375 L 154.515625 123.714844 "/>
<path style="fill:none;stroke-width:1.2;stroke-linecap:butt;stroke-linejoin:miter;stroke:rgb(0%,0%,0%);stroke-opacity:1;stroke-miterlimit:10;" d="M 198.035156 103.625 L 225.59375 106.144531 "/>
<path style="fill:none;stroke-width:1.2;stroke-linecap:butt;stroke-linejoin:miter;stroke:rgb(0%,0%,0%);stroke-opacity:1;stroke-miterlimit:10;" d="M 200.199219 110.363281 L 222.246094 112.378906 "/>
<path style="fill:none;stroke-width:1.2;stroke-linecap:butt;stroke-linejoin:miter;stroke:rgb(0%,0%,0%);stroke-opacity:1;stroke-miterlimit:10;" d="M 154.515625 123.714844 L 136.28125 144.527344 "/>
<path style="fill:none;stroke-width:1.2;stroke-linecap:butt;stroke-linejoin:miter;stroke:rgb(0%,0%,0%);stroke-opacity:1;stroke-miterlimit:10;" d="M 147.792969 121.503906 L 133.207031 138.15625 "/>
<path style="fill:none;stroke-width:1.2;stroke-linecap:butt;stroke-linejoin:miter;stroke:rgb(0%,0%,0%);stroke-opacity:1;stroke-miterlimit:10;" d="M 140.355469 99.9375 L 154.515625 123.714844 "/>
<path style="fill:none;stroke-width:1.2;stroke-linecap:butt;stroke-linejoin:miter;stroke:rgb(0%,0%,0%);stroke-opacity:1;stroke-miterlimit:10;" d="M 136.28125 144.527344 L 123.5625 139.074219 "/>
<path style="fill:none;stroke-width:1.2;stroke-linecap:butt;stroke-linejoin:miter;stroke:rgb(0%,0%,100%);stroke-opacity:1;stroke-miterlimit:10;" d="M 123.5625 139.074219 L 110.847656 133.617188 "/>
<path style="fill:none;stroke-width:1.2;stroke-linecap:butt;stroke-linejoin:miter;stroke:rgb(0%,0%,0%);stroke-opacity:1;stroke-miterlimit:10;" d="M 136.28125 144.527344 L 142.398438 171.515625 "/>
<path style="fill:none;stroke-width:1.2;stroke-linecap:butt;stroke-linejoin:miter;stroke:rgb(0%,0%,100%);stroke-opacity:1;stroke-miterlimit:10;" d="M 110.847656 133.617188 L 112.109375 119.839844 "/>
<path style="fill:none;stroke-width:1.2;stroke-linecap:butt;stroke-linejoin:miter;stroke:rgb(100%,0%,0%);stroke-opacity:1;stroke-miterlimit:10;" d="M 112.109375 119.839844 L 113.367188 106.058594 "/>
<path style="fill:none;stroke-width:1.2;stroke-linecap:butt;stroke-linejoin:miter;stroke:rgb(0%,0%,100%);stroke-opacity:1;stroke-miterlimit:10;" d="M 110.847656 133.617188 L 98.960938 140.699219 "/>
<path style="fill:none;stroke-width:1.2;stroke-linecap:butt;stroke-linejoin:miter;stroke:rgb(0%,0%,0%);stroke-opacity:1;stroke-miterlimit:10;" d="M 98.960938 140.699219 L 87.074219 147.777344 "/>
<path style=" stroke:none;fill-rule:nonzero;fill:rgb(100%,100%,100%);fill-opacity:1;" d="M 106.847656 127.117188 L 114.847656 127.117188 L 114.847656 140.117188 L 106.847656 140.117188 Z M 106.847656 127.117188 "/>
<g style="fill:rgb(0%,0%,100%);fill-opacity:1;">
  <use xlink:href="#glyph0-2" x="106.847656" y="137.018555"/>
</g>
<path style="fill:none;stroke-width:1.2;stroke-linecap:butt;stroke-linejoin:miter;stroke:rgb(100%,0%,0%);stroke-opacity:1;stroke-miterlimit:10;" d="M 113.367188 106.058594 L 126.859375 103 "/>
<path style="fill:none;stroke-width:1.2;stroke-linecap:butt;stroke-linejoin:miter;stroke:rgb(0%,0%,0%);stroke-opacity:1;stroke-miterlimit:10;" d="M 126.859375 103 L 140.355469 99.9375 "/>
<path style=" stroke:none;fill-rule:nonzero;fill:rgb(100%,100%,100%);fill-opacity:1;" d="M 109.367188 99.558594 L 118.367188 99.558594 L 118.367188 112.558594 L 109.367188 112.558594 Z M 109.367188 99.558594 "/>
<g style="fill:rgb(100%,0%,0%);fill-opacity:1;">
  <use xlink:href="#glyph0-3" x="109.367188" y="109.459961"/>
</g>
<path style="fill:none;stroke-width:1.2;stroke-linecap:butt;stroke-linejoin:miter;stroke:rgb(0%,0%,0%);stroke-opacity:1;stroke-miterlimit:10;" d="M 143.347656 101.222656 L 148.804688 88.507812 "/>
<path style="fill:none;stroke-width:1.2;stroke-linecap:butt;stroke-linejoin:miter;stroke:rgb(100%,0%,0%);stroke-opacity:1;stroke-miterlimit:10;" d="M 148.804688 88.507812 L 154.257812 75.789062 "/>
<path style="fill:none;stroke-width:1.2;stroke-linecap:butt;stroke-linejoin:miter;stroke:rgb(0%,0%,0%);stroke-opacity:1;stroke-miterlimit:10;" d="M 137.363281 98.65625 L 142.820312 85.9375 "/>
<path style="fill:none;stroke-width:1.2;stroke-linecap:butt;stroke-linejoin:miter;stroke:rgb(100%,0%,0%);stroke-opacity:1;stroke-miterlimit:10;" d="M 142.820312 85.9375 L 148.273438 73.222656 "/>
<path style=" stroke:none;fill-rule:nonzero;fill:rgb(100%,100%,100%);fill-opacity:1;" d="M 147.265625 68.007812 L 156.265625 68.007812 L 156.265625 81.007812 L 147.265625 81.007812 Z M 147.265625 68.007812 "/>
<g style="fill:rgb(100%,0%,0%);fill-opacity:1;">
  <use xlink:href="#glyph0-3" x="147.265625" y="77.90918"/>
</g>
<path style="fill:none;stroke-width:1.2;stroke-linecap:butt;stroke-linejoin:miter;stroke:rgb(0%,0%,0%);stroke-opacity:1;stroke-miterlimit:10;" d="M 87.074219 147.777344 L 62.921875 134.269531 "/>
<path style="fill:none;stroke-width:1.2;stroke-linecap:butt;stroke-linejoin:miter;stroke:rgb(0%,0%,0%);stroke-opacity:1;stroke-miterlimit:10;" d="M 62.921875 134.269531 L 49.085938 134.457031 "/>
<path style="fill:none;stroke-width:1.2;stroke-linecap:butt;stroke-linejoin:miter;stroke:rgb(100%,0%,0%);stroke-opacity:1;stroke-miterlimit:10;" d="M 49.085938 134.457031 L 35.25 134.644531 "/>
<path style="fill:none;stroke-width:1.2;stroke-linecap:butt;stroke-linejoin:miter;stroke:rgb(0%,0%,0%);stroke-opacity:1;stroke-miterlimit:10;" d="M 48.761719 110.492188 L 62.921875 134.269531 "/>
<path style="fill:none;stroke-width:1.2;stroke-linecap:butt;stroke-linejoin:miter;stroke:rgb(100%,0%,0%);stroke-opacity:1;stroke-miterlimit:10;" d="M 35.25 134.644531 L 42.003906 122.566406 "/>
<path style="fill:none;stroke-width:1.2;stroke-linecap:butt;stroke-linejoin:miter;stroke:rgb(0%,0%,0%);stroke-opacity:1;stroke-miterlimit:10;" d="M 42.003906 122.566406 L 48.761719 110.492188 "/>
<path style=" stroke:none;fill-rule:nonzero;fill:rgb(100%,100%,100%);fill-opacity:1;" d="M 31.25 128.144531 L 40.25 128.144531 L 40.25 141.144531 L 31.25 141.144531 Z M 31.25 128.144531 "/>
<g style="fill:rgb(100%,0%,0%);fill-opacity:1;">
  <use xlink:href="#glyph0-3" x="31.25" y="138.045898"/>
</g>
<path style="fill:none;stroke-width:1.2;stroke-linecap:butt;stroke-linejoin:miter;stroke:rgb(0%,0%,0%);stroke-opacity:1;stroke-miterlimit:10;" d="M 142.398438 171.515625 L 122.085938 190.3125 "/>
<path style="fill:none;stroke-width:1.2;stroke-linecap:butt;stroke-linejoin:miter;stroke:rgb(0%,0%,0%);stroke-opacity:1;stroke-miterlimit:10;" d="M 144.789062 178.175781 L 128.542969 193.210938 "/>
<path style="fill:none;stroke-width:1.2;stroke-linecap:butt;stroke-linejoin:miter;stroke:rgb(0%,0%,0%);stroke-opacity:1;stroke-miterlimit:10;" d="M 168.832031 179.710938 L 142.398438 171.515625 "/>
<path style="fill:none;stroke-width:1.2;stroke-linecap:butt;stroke-linejoin:miter;stroke:rgb(0%,0%,0%);stroke-opacity:1;stroke-miterlimit:10;" d="M 122.085938 190.3125 L 128.207031 217.300781 "/>
<path style="fill:none;stroke-width:1.2;stroke-linecap:butt;stroke-linejoin:miter;stroke:rgb(0%,0%,0%);stroke-opacity:1;stroke-miterlimit:10;" d="M 128.207031 217.300781 L 141.425781 221.394531 "/>
<path style="fill:none;stroke-width:1.2;stroke-linecap:butt;stroke-linejoin:miter;stroke:rgb(0%,0%,100%);stroke-opacity:1;stroke-miterlimit:10;" d="M 141.425781 221.394531 L 154.640625 225.492188 "/>
<path style="fill:none;stroke-width:1.2;stroke-linecap:butt;stroke-linejoin:miter;stroke:rgb(0%,0%,0%);stroke-opacity:1;stroke-miterlimit:10;" d="M 132.78125 211.898438 L 143.351562 215.175781 "/>
<path style="fill:none;stroke-width:1.2;stroke-linecap:butt;stroke-linejoin:miter;stroke:rgb(0%,0%,100%);stroke-opacity:1;stroke-miterlimit:10;" d="M 143.351562 215.175781 L 153.925781 218.453125 "/>
<path style="fill:none;stroke-width:1.2;stroke-linecap:butt;stroke-linejoin:miter;stroke:rgb(0%,0%,100%);stroke-opacity:1;stroke-miterlimit:10;" d="M 154.640625 225.492188 L 164.796875 216.097656 "/>
<path style="fill:none;stroke-width:1.2;stroke-linecap:butt;stroke-linejoin:miter;stroke:rgb(0%,0%,0%);stroke-opacity:1;stroke-miterlimit:10;" d="M 164.796875 216.097656 L 174.953125 206.699219 "/>
<path style=" stroke:none;fill-rule:nonzero;fill:rgb(100%,100%,100%);fill-opacity:1;" d="M 150.640625 218.992188 L 158.640625 218.992188 L 158.640625 231.992188 L 150.640625 231.992188 Z M 150.640625 218.992188 "/>
<g style="fill:rgb(0%,0%,100%);fill-opacity:1;">
  <use xlink:href="#glyph0-2" x="150.640625" y="228.893555"/>
</g>
<path style="fill:none;stroke-width:1.2;stroke-linecap:butt;stroke-linejoin:miter;stroke:rgb(0%,0%,0%);stroke-opacity:1;stroke-miterlimit:10;" d="M 174.953125 206.699219 L 168.832031 179.710938 "/>
<path style="fill:none;stroke-width:1.2;stroke-linecap:butt;stroke-linejoin:miter;stroke:rgb(0%,0%,0%);stroke-opacity:1;stroke-miterlimit:10;" d="M 167.992188 205.441406 L 163.09375 183.847656 "/>
</g>
</svg>

<svg xmlns="http://www.w3.org/2000/svg" xmlns:xlink="http://www.w3.org/1999/xlink" width="300pt" height="300pt" viewBox="0 0 300 300"><defs><symbol overflow="visible"><path d="M.547 1.938V-7.75h5.5v9.688zm.625-.61h4.266v-8.47H1.171zm0 0"/></symbol><symbol overflow="visible" id="a"><path d="M1.078-8.016h4.61v.907H2.171v2.36h3.172v.922H2.172V0H1.078zm0 0"/></symbol><symbol overflow="visible" id="b"><path d="M1.078-8.016h1.47l3.546 6.704v-6.704h1.062V0H5.688L2.124-6.703V0H1.078zm0 0"/></symbol><symbol overflow="visible" id="c"><path d="M4.328-7.28c-.78 0-1.406.296-1.875.89-.46.585-.687 1.382-.687 2.39 0 1.012.226 1.813.687 2.406.47.586 1.094.875 1.875.875.79 0 1.414-.288 1.875-.874.457-.593.688-1.394.688-2.406 0-1.008-.23-1.805-.687-2.39-.46-.594-1.086-.89-1.875-.89zm0-.892c1.125 0 2.024.383 2.703 1.14C7.708-6.28 8.048-5.27 8.048-4c0 1.262-.34 2.273-1.016 3.03C6.353-.22 5.454.157 4.33.157S2.3-.22 1.625-.97c-.668-.75-1-1.757-1-3.03 0-1.27.332-2.28 1-3.03.676-.76 1.578-1.142 2.703-1.142zm0 0"/></symbol></defs><g><path fill="#fff" d="M0 0h300v300H0z"/><path d="M264.75 133.79l-13.777-1.26" stroke-width="1.2" stroke="#3cc" stroke-miterlimit="10" fill="none"/><path d="M250.973 132.53l-13.782-1.26" stroke-width="1.2" stroke="#000" stroke-miterlimit="10" fill="none"/><path d="M261.75 127.29h7v13h-7zm0 0" fill="#fff"/><use xlink:href="#a" x="261.75" y="137.19" fill="#3cc"/><path d="M237.19 131.27l-15.96 22.61M230.277 129.777l-12.77 18.086M225.594 106.145l11.597 25.125M221.23 153.88l-27.558-2.52M193.672 151.36l-11.598-25.126M198.426 146.117l-9.28-20.1M182.074 126.234l15.96-22.61M182.074 126.234l-27.558-2.52M198.035 103.625l27.56 2.52M200.2 110.363l22.046 2.016M154.516 123.715l-18.235 20.812M147.793 121.504l-14.586 16.652M140.355 99.938l14.16 23.777M136.28 144.527l-12.718-5.453" stroke-width="1.2" stroke="#000" stroke-miterlimit="10" fill="none"/><path d="M123.563 139.074l-12.715-5.457" stroke-width="1.2" stroke="#00f" stroke-miterlimit="10" fill="none"/><path d="M136.28 144.527l6.118 26.99" stroke-width="1.2" stroke="#000" stroke-miterlimit="10" fill="none"/><path d="M110.848 133.617l1.26-13.777" stroke-width="1.2" stroke="#00f" stroke-miterlimit="10" fill="none"/><path d="M112.11 119.84l1.257-13.78" stroke-width="1.2" stroke="#f00" stroke-miterlimit="10" fill="none"/><path d="M110.848 133.617L98.96 140.7" stroke-width="1.2" stroke="#00f" stroke-miterlimit="10" fill="none"/><path d="M98.96 140.7l-11.886 7.077" stroke-width="1.2" stroke="#000" stroke-miterlimit="10" fill="none"/><path d="M106.848 127.117h8v13h-8zm0 0" fill="#fff"/><use xlink:href="#b" x="106.848" y="137.019" fill="#00f"/><path d="M113.367 106.06L126.86 103" stroke-width="1.2" stroke="#f00" stroke-miterlimit="10" fill="none"/><path d="M126.86 103l13.495-3.063" stroke-width="1.2" stroke="#000" stroke-miterlimit="10" fill="none"/><path d="M109.367 99.56h9v13h-9zm0 0" fill="#fff"/><use xlink:href="#c" x="109.367" y="109.46" fill="#f00"/><path d="M143.348 101.223l5.457-12.715" stroke-width="1.2" stroke="#000" stroke-miterlimit="10" fill="none"/><path d="M148.805 88.508l5.453-12.72" stroke-width="1.2" stroke="#f00" stroke-miterlimit="10" fill="none"/><path d="M137.363 98.656l5.457-12.72" stroke-width="1.2" stroke="#000" stroke-miterlimit="10" fill="none"/><path d="M142.82 85.938l5.453-12.715" stroke-width="1.2" stroke="#f00" stroke-miterlimit="10" fill="none"/><path d="M147.266 68.008h9v13h-9zm0 0" fill="#fff"/><use xlink:href="#c" x="147.266" y="77.909" fill="#f00"/><path d="M87.074 147.777L62.922 134.27M62.922 134.27l-13.836.187" stroke-width="1.2" stroke="#000" stroke-miterlimit="10" fill="none"/><path d="M49.086 134.457l-13.836.188" stroke-width="1.2" stroke="#f00" stroke-miterlimit="10" fill="none"/><path d="M48.762 110.492l14.16 23.778" stroke-width="1.2" stroke="#000" stroke-miterlimit="10" fill="none"/><path d="M35.25 134.645l6.754-12.08" stroke-width="1.2" stroke="#f00" stroke-miterlimit="10" fill="none"/><path d="M42.004 122.566l6.758-12.074" stroke-width="1.2" stroke="#000" stroke-miterlimit="10" fill="none"/><path d="M31.25 128.145h9v13h-9zm0 0" fill="#fff"/><use xlink:href="#c" x="31.25" y="138.046" fill="#f00"/><path d="M142.398 171.516l-20.312 18.797M144.79 178.176l-16.247 15.035M168.832 179.71l-26.434-8.194M122.086 190.313l6.12 26.988M128.207 217.3l13.22 4.095" stroke-width="1.2" stroke="#000" stroke-miterlimit="10" fill="none"/><path d="M141.426 221.395l13.215 4.097" stroke-width="1.2" stroke="#00f" stroke-miterlimit="10" fill="none"/><path d="M132.78 211.898l10.572 3.278" stroke-width="1.2" stroke="#000" stroke-miterlimit="10" fill="none"/><path d="M143.352 215.176l10.574 3.277M154.64 225.492l10.157-9.394" stroke-width="1.2" stroke="#00f" stroke-miterlimit="10" fill="none"/><path d="M164.797 216.098l10.156-9.4" stroke-width="1.2" stroke="#000" stroke-miterlimit="10" fill="none"/><path d="M150.64 218.992h8v13h-8zm0 0" fill="#fff"/><use xlink:href="#b" x="150.641" y="228.894" fill="#00f"/><path d="M174.953 206.7l-6.12-26.99M167.992 205.44l-4.898-21.592" stroke-width="1.2" stroke="#000" stroke-miterlimit="10" fill="none"/></g></svg>
